Suru++-Ubuntu/animations/24/brasero-disc-05.svg

<!-- Created with Inkscape (http://www.inkscape.org/) -->
<svg width="24" height="24" version="1.0" xmlns="http://www.w3.org/2000/svg" xmlns:xlink="http://www.w3.org/1999/xlink">
 <path d="m12 1c0.556517 0 1.10021 0.05077 1.632813 0.1289064-0.530275-0.0789645-1.079465-0.1289064-1.632813-0.1289064zc-6.0719999 0-11 4.9280001-11 11 0 6.072 4.9280003 11 11 11 6.072 0 11-4.928 11-11 0-2.4451004-0.797323-4.7042444-2.148439-6.53125-0.023643-0.031972-0.061953-0.0542314-0.085935-0.0859385-0.199562-0.2638424-0.422475-0.5288804-0.644532-0.7734372-1.279496-1.4091262-2.922927-2.4966894-4.769533-3.09375l-2.191406 6.5742206c0.866372 0.258371 1.621793 0.7510542 2.148439 1.4609358 0.508936 0.6860133 0.816406 1.5300483 0.816406 2.4492193 0 2.277-1.848 4.125-4.125 4.125s-4.125-1.848-4.125-4.125c1e-7 -2.277 1.848-4.1250005 4.125-4.1250005z" style="fill-rule:evenodd;fill:#ffffff;opacity:.5"/>
 <path d="m 12,1 v 6.875 c 0.406678,0 0.789729,0.1043751 1.160155,0.2148449 l 2.191406,-6.57422 C 14.292339,1.1759879 13.171268,1 12,1 Z" style="fill:#ffffff"/>
</svg>

<?xml version="1.0" encoding="UTF-8" standalone="no"?>
<!-- Created with Inkscape (http://www.inkscape.org/) -->

<svg
   xmlns:dc="http://purl.org/dc/elements/1.1/"
   xmlns:cc="http://creativecommons.org/ns#"
   xmlns:rdf="http://www.w3.org/1999/02/22-rdf-syntax-ns#"
   xmlns:svg="http://www.w3.org/2000/svg"
   xmlns="http://www.w3.org/2000/svg"
   xmlns:xlink="http://www.w3.org/1999/xlink"
   xmlns:sodipodi="http://sodipodi.sourceforge.net/DTD/sodipodi-0.dtd"
   xmlns:inkscape="http://www.inkscape.org/namespaces/inkscape"
   version="1.0"
   width="24"
   height="24"
   id="svg3236"
   inkscape:version="0.92.2 (unknown)"
   sodipodi:docname="brasero-disc-05.svg">
  <metadata
     id="metadata16">
    <rdf:RDF>
      <cc:Work
         rdf:about="">
        <dc:format>image/svg+xml</dc:format>
        <dc:type
           rdf:resource="http://purl.org/dc/dcmitype/StillImage" />
        <dc:title></dc:title>
      </cc:Work>
    </rdf:RDF>
  </metadata>
  <sodipodi:namedview
     pagecolor="#ffffff"
     bordercolor="#666666"
     borderopacity="1"
     objecttolerance="10"
     gridtolerance="10"
     guidetolerance="10"
     inkscape:pageopacity="0"
     inkscape:pageshadow="2"
     inkscape:window-width="1920"
     inkscape:window-height="1013"
     id="namedview14"
     showgrid="false"
     inkscape:zoom="34.583333"
     inkscape:cx="12"
     inkscape:cy="12"
     inkscape:window-x="0"
     inkscape:window-y="34"
     inkscape:window-maximized="1"
     inkscape:current-layer="svg3236" />
  <defs
     id="defs3238">
    <linearGradient
       x1="35.007519"
       y1="23.178743"
       x2="35.007519"
       y2="4.9945626"
       id="linearGradient2460"
       xlink:href="#linearGradient3587-6-5"
       gradientUnits="userSpaceOnUse"
       gradientTransform="translate(-24.785715,-2.035714)" />
    <linearGradient
       id="linearGradient3587-6-5">
      <stop
         id="stop3589-9-2"
         style="stop-color:#e6e6e6;stop-opacity:1;"
         offset="0" />
      <stop
         id="stop3591-7-4"
         style="stop-color:#ffffff;stop-opacity:1;"
         offset="1" />
    </linearGradient>
    <linearGradient
       x1="15.669166"
       y1="-2.6219723"
       x2="15.669166"
       y2="11.969362"
       id="linearGradient2449"
       xlink:href="#linearGradient3587-6-5"
       gradientUnits="userSpaceOnUse"
       gradientTransform="matrix(0.9302326,0,0,1.2359551,-10.575969,6.1536003)" />
    <linearGradient
       x1="15.669166"
       y1="-2.6219723"
       x2="15.669166"
       y2="11.969362"
       id="linearGradient2390"
       xlink:href="#linearGradient3587-6-5"
       gradientUnits="userSpaceOnUse"
       gradientTransform="matrix(0.9302326,0,0,1.2359551,-11.575969,5.1536003)" />
    <linearGradient
       x1="35.007519"
       y1="23.178743"
       x2="35.007519"
       y2="4.9945626"
       id="linearGradient2393"
       xlink:href="#linearGradient3587-6-5"
       gradientUnits="userSpaceOnUse"
       gradientTransform="translate(-25.785715,-3.035714)" />
  </defs>
  <path
     d="m 12,1 c 0.556517,0 1.10021,0.05077 1.632813,0.1289064 C 13.102538,1.0499419 12.553348,1 12,1 Z m 0,0 C 5.9280001,1 0.9999997,5.9280001 1,12 1,18.072 5.9280003,23 12,23 18.072,23 23,18.072 23,12 23,9.5548996 22.202677,7.2957556 20.851561,5.46875 20.827918,5.436778 20.789608,5.4145186 20.765626,5.3828115 20.566064,5.1189691 20.343151,4.8539311 20.121094,4.6093743 18.841598,3.2002481 17.198167,2.1126849 15.351561,1.5156243 l -2.191406,6.5742206 c 0.866372,0.258371 1.621793,0.7510542 2.148439,1.4609358 C 15.81753,10.236794 16.125,11.080829 16.125,12 16.125,14.277 14.277,16.125 12,16.125 9.723,16.125 7.875,14.277 7.875,12 7.8750001,9.723 9.723,7.8749995 12,7.8749995 Z"
     id="path3170"
     style="display:inline;overflow:visible;visibility:visible;opacity:0.5;fill:#ffffff;fill-opacity:1;fill-rule:evenodd;stroke:none;stroke-width:1.37500012;stroke-linecap:butt;stroke-linejoin:miter;stroke-miterlimit:4;stroke-dasharray:none;stroke-dashoffset:0;stroke-opacity:1;marker:none;marker-start:none;marker-mid:none;marker-end:none;enable-background:accumulate"
     inkscape:connector-curvature="0" />
  <path
     d="m 12,1 v 6.875 c 0.406678,0 0.789729,0.1043751 1.160155,0.2148449 l 2.191406,-6.57422 C 14.292339,1.1759879 13.171268,1 12,1 Z"
     id="path3288"
     style="display:inline;overflow:visible;visibility:visible;opacity:1;fill:#ffffff;fill-opacity:1;fill-rule:nonzero;stroke:none;stroke-width:1.37500012;stroke-linecap:butt;stroke-linejoin:miter;stroke-miterlimit:4;stroke-dasharray:none;stroke-dashoffset:0;stroke-opacity:1;marker:none;marker-start:none;marker-mid:none;marker-end:none;enable-background:accumulate"
     inkscape:connector-curvature="0" />
</svg>
